X:70
T: ZEHN GAENS IM HABERSTROH
N: K1220
O: Europa, Mitteleuropa, Deutschland, Westfalen
R: Kinder - Lied, Tier - Maerchen
M: 2/4
L: 1/16
K: F
c4 | A2F2G2E2 | F4z2
AB | c4A2AB | c4A2
B2 | c2A2B2G2 | F4
c4 | A2F2G2E2 | F4

@@@ Tune index: 7407
